client/assets/images/earn/payments-illustration.svg

<svg width="177" height="157" viewBox="0 0 177 157" fill="none" xmlns="http://www.w3.org/2000/svg">
 <circle cx="86.7461" cy="78.5" r="78.5" fill="#E6F2E8"/>
 <path d="M1.22852 41.6006H0.728516V42.1006V131.318C0.728516 132.699 1.84781 133.818 3.22852 133.818H173.77C175.151 133.818 176.27 132.699 176.27 131.318V42.1006V41.6006H175.77H1.22852Z" fill="white" stroke="#A7AAAD"/>
 <path d="M4.35156 24.1816H172.648C174.581 24.1816 176.148 25.7486 176.148 27.6816V41.6006H0.851562V27.6816C0.851562 25.7486 2.41857 24.1816 4.35156 24.1816Z" fill="#F6F7F7" stroke="#A7AAAD"/>
 <rect x="78.4131" y="100.866" width="90.3408" height="24.5587" rx="4" fill="#3582C4"/>
 <rect x="8.74512" y="49.6174" width="62.1508" height="76.1844" rx="3.5" fill="#F6F7F7" stroke="#C3C4C7"/>
 <rect x="32.6768" y="80.5657" width="14.2877" height="14.2877" rx="1.25" stroke="#A7AAAD" stroke-width="1.5"/>
 <path d="M32.8037 91.218L36.8133 88.2943L39.8205 90.2434L43.3288 86.8325L46.8372 90.2434" stroke="#A7AAAD" stroke-width="1.5" stroke-linejoin="round"/>
 <rect x="106.479" y="109.637" width="49.1173" height="7.01676" fill="white"/>
 <rect x="78.4131" y="52.6257" width="63.1508" height="10.5251" fill="#646970"/>
 <rect x="78.4131" y="70.1677" width="84.2011" height="7.01676" fill="#DCDCDE"/>
 <rect x="78.4131" y="80.6929" width="35.0838" height="7.01676" fill="#DCDCDE"/>
 <rect x="85.4307" y="106.128" width="14.0335" height="14.0335" rx="7.01676" stroke="white" stroke-width="1.5"/>
 <path d="M93.8894 111.61C93.8894 112.025 94.2252 112.36 94.6394 112.36C95.0536 112.36 95.3894 112.025 95.3894 111.61H93.8894ZM92.4466 112.395C91.9761 112.395 91.5824 112.261 91.3262 112.081C91.0678 111.9 91.0039 111.722 91.0039 111.61H89.5039C89.5039 112.346 89.9309 112.936 90.466 113.31C91.0035 113.686 91.7061 113.895 92.4466 113.895V112.395ZM91.0039 111.61C91.0039 111.498 91.0678 111.32 91.3262 111.139C91.5824 110.96 91.9761 110.825 92.4466 110.825V109.325C91.7061 109.325 91.0035 109.534 90.466 109.911C89.9309 110.285 89.5039 110.875 89.5039 111.61H91.0039ZM92.4466 110.825C92.9171 110.825 93.3109 110.96 93.5671 111.139C93.8255 111.32 93.8894 111.498 93.8894 111.61H95.3894C95.3894 110.875 94.9624 110.285 94.4272 109.911C93.8898 109.534 93.1872 109.325 92.4466 109.325V110.825Z" fill="white"/>
 <path d="M91.0032 114.68C91.0032 114.266 90.6674 113.93 90.2532 113.93C89.839 113.93 89.5032 114.266 89.5032 114.68L91.0032 114.68ZM92.4459 113.895C92.9164 113.895 93.3102 114.03 93.5663 114.209C93.8248 114.39 93.8887 114.568 93.8887 114.68L95.3887 114.68C95.3887 113.944 94.9617 113.355 94.4265 112.98C93.889 112.604 93.1864 112.395 92.4459 112.395L92.4459 113.895ZM93.8887 114.68C93.8887 114.792 93.8248 114.97 93.5663 115.151C93.3102 115.33 92.9164 115.465 92.4459 115.465L92.4459 116.965C93.1864 116.965 93.889 116.756 94.4265 116.38C94.9617 116.005 95.3887 115.416 95.3887 114.68L93.8887 114.68ZM92.4459 115.465C91.9754 115.465 91.5816 115.33 91.3255 115.151C91.067 114.97 91.0032 114.792 91.0032 114.68L89.5032 114.68C89.5032 115.416 89.9302 116.005 90.4653 116.38C91.0028 116.756 91.7054 116.965 92.4459 116.965L92.4459 115.465Z" fill="white"/>
 <path d="M93.1963 116.654C93.1963 116.239 92.8605 115.904 92.4463 115.904C92.0321 115.904 91.6963 116.239 91.6963 116.654L93.1963 116.654ZM91.6963 117.092C91.6963 117.506 92.0321 117.842 92.4463 117.842C92.8605 117.842 93.1963 117.506 93.1963 117.092L91.6963 117.092ZM91.6963 116.654L91.6963 117.092L93.1963 117.092L93.1963 116.654L91.6963 116.654Z" fill="white"/>
 <path d="M93.1963 109.198C93.1963 108.784 92.8605 108.448 92.4463 108.448C92.0321 108.448 91.6963 108.784 91.6963 109.198L93.1963 109.198ZM91.6963 109.637C91.6963 110.051 92.0321 110.387 92.4463 110.387C92.8605 110.387 93.1963 110.051 93.1963 109.637L91.6963 109.637ZM91.6963 109.198L91.6963 109.637L93.1963 109.637L93.1963 109.198L91.6963 109.198Z" fill="white"/>
 <path d="M10.9739 35.953C12.768 35.953 14.2223 34.4987 14.2223 32.7047C14.2223 30.9106 12.768 29.4563 10.9739 29.4563C9.17992 29.4563 7.72559 30.9106 7.72559 32.7047C7.72559 34.4987 9.17992 35.953 10.9739 35.953Z" fill="#C3C4C7"/>
 <path d="M23.2454 35.953C25.0394 35.953 26.4938 34.4987 26.4938 32.7047C26.4938 30.9106 25.0394 29.4563 23.2454 29.4563C21.4514 29.4563 19.9971 30.9106 19.9971 32.7047C19.9971 34.4987 21.4514 35.953 23.2454 35.953Z" fill="#C3C4C7"/>
 <path d="M35.5169 35.953C37.3109 35.953 38.7653 34.4987 38.7653 32.7047C38.7653 30.9106 37.3109 29.4563 35.5169 29.4563C33.7229 29.4563 32.2686 30.9106 32.2686 32.7047C32.2686 34.4987 33.7229 35.953 35.5169 35.953Z" fill="#C3C4C7"/>
 </svg>

<svg width="177" height="157" fill="none" xmlns="http://www.w3.org/2000/svg"><circle cx="86.746" cy="78.5" r="78.5" fill="#E6F2E8"/><path d="M1.229 41.6h-.5v89.718a2.5 2.5 0 002.5 2.5H173.77a2.5 2.5 0 002.5-2.5V41.601H1.229z" fill="#fff" stroke="#A7AAAD"/><path d="M4.352 24.182h168.296a3.5 3.5 0 013.5 3.5V41.6H.852V27.68a3.5 3.5 0 013.5-3.5z" fill="#F6F7F7" stroke="#A7AAAD"/><rect x="78.413" y="100.866" width="90.341" height="24.559" rx="4" fill="#1689db"/><rect x="8.745" y="49.617" width="62.151" height="76.184" rx="3.5" fill="#F6F7F7" stroke="#C3C4C7"/><rect x="32.677" y="80.566" width="14.288" height="14.288" rx="1.25" stroke="#A7AAAD" stroke-width="1.5"/><path d="M32.804 91.218l4.01-2.924 3.007 1.95 3.508-3.412 3.508 3.411" stroke="#A7AAAD" stroke-width="1.5" stroke-linejoin="round"/><path fill="#fff" d="M106.479 109.637h49.117v7.017h-49.117z"/><path fill="#646970" d="M78.413 52.626h63.151v10.525H78.413z"/><path fill="#DCDCDE" d="M78.413 70.168h84.201v7.017H78.413zM78.413 80.693h35.084v7.017H78.413z"/><rect x="85.431" y="106.128" width="14.034" height="14.034" rx="7.017" stroke="#fff" stroke-width="1.5"/><path d="M93.89 111.61a.75.75 0 101.5 0h-1.5zm-1.443.785c-.47 0-.865-.134-1.12-.314-.26-.181-.323-.359-.323-.471h-1.5c0 .736.427 1.326.962 1.7.538.376 1.24.585 1.98.585v-1.5zm-1.443-.785c0-.112.064-.29.322-.471.256-.179.65-.314 1.12-.314v-1.5c-.74 0-1.442.209-1.98.586-.535.374-.962.964-.962 1.699h1.5zm1.443-.785c.47 0 .864.135 1.12.314.259.181.322.359.322.471h1.5c0-.735-.427-1.325-.962-1.699-.537-.377-1.24-.586-1.98-.586v1.5z" fill="#fff"/><path d="M91.003 114.68a.75.75 0 00-1.5 0h1.5zm1.443-.785c.47 0 .864.135 1.12.314.259.181.323.359.323.471h1.5c0-.736-.427-1.325-.962-1.7-.538-.376-1.24-.585-1.981-.585v1.5zm1.443.785c0 .112-.064.29-.323.471-.256.179-.65.314-1.12.314v1.5c.74 0 1.443-.209 1.98-.585.536-.375.963-.964.963-1.7h-1.5zm-1.443.785c-.47 0-.864-.135-1.12-.314-.259-.181-.323-.359-.323-.471h-1.5c0 .736.427 1.325.962 1.7.538.376 1.24.585 1.98.585v-1.5z" fill="#fff"/><path d="M93.196 116.654a.75.75 0 10-1.5 0h1.5zm-1.5.438a.75.75 0 001.5 0h-1.5zm0-.438v.438h1.5v-.438h-1.5zM93.196 109.198a.75.75 0 00-1.5 0h1.5zm-1.5.439a.75.75 0 001.5 0h-1.5zm0-.439v.439h1.5v-.439h-1.5z" fill="#fff"/><path d="M10.974 35.953a3.248 3.248 0 100-6.497 3.248 3.248 0 000 6.497zM23.245 35.953a3.248 3.248 0 100-6.497 3.248 3.248 0 000 6.497zM35.517 35.953a3.248 3.248 0 100-6.497 3.248 3.248 0 000 6.497z" fill="#C3C4C7"/></svg>
